assets/images/logo.svg

<svg width="267" height="45" viewBox="0 0 267 45" fill="none" xmlns="http://www.w3.org/2000/svg">
<path d="M60.3022 24.5083V33H54.7017V24.5083L44.6206 12.2021H50.9175L57.5171 20.5728L64.0864 12.2021H70.3833L60.3022 24.5083ZM78.2318 12.2021V23.918C78.2318 24.695 78.2974 25.4014 78.4286 26.0371C78.5598 26.6628 78.802 27.2026 79.1552 27.6567C79.5084 28.1007 80.0028 28.4489 80.6386 28.7012C81.2743 28.9434 82.1018 29.0645 83.121 29.0645C83.8879 29.0645 84.6902 28.9585 85.5277 28.7466C86.3754 28.5347 87.213 28.2521 88.0404 27.8989C88.8679 27.5457 89.655 27.1421 90.4018 26.688C91.1586 26.2238 91.8347 25.7445 92.4301 25.25V12.2021H98.0307V33H92.4301V30.1543C91.7237 30.5579 90.9719 30.9666 90.1747 31.3804C89.3775 31.784 88.5299 32.1523 87.6317 32.4854C86.7336 32.8083 85.78 33.0706 84.7709 33.2725C83.7618 33.4844 82.6972 33.5903 81.5771 33.5903C80.1744 33.5903 78.918 33.4188 77.808 33.0757C76.698 32.7427 75.7595 32.2684 74.9926 31.6528C74.2257 31.0272 73.6353 30.2754 73.2216 29.3975C72.8179 28.5094 72.6161 27.5205 72.6161 26.4307V12.2021H78.2318ZM126.072 31.5771C125.345 31.8799 124.613 32.1523 123.877 32.3945C123.14 32.6367 122.378 32.8436 121.591 33.0151C120.804 33.1968 119.971 33.333 119.094 33.4238C118.226 33.5146 117.292 33.5601 116.293 33.5601C114.174 33.5601 112.221 33.333 110.435 32.8789C108.659 32.4248 107.125 31.7437 105.834 30.8354C104.552 29.9172 103.553 28.7769 102.837 27.4146C102.12 26.0422 101.762 24.4427 101.762 22.6162C101.762 20.7897 102.12 19.1953 102.837 17.833C103.553 16.4606 104.552 15.3203 105.834 14.4121C107.125 13.4938 108.659 12.8076 110.435 12.3535C112.221 11.8994 114.174 11.6724 116.293 11.6724C117.292 11.6724 118.226 11.7178 119.094 11.8086C119.971 11.8994 120.804 12.0356 121.591 12.2173C122.378 12.3888 123.14 12.5957 123.877 12.8379C124.613 13.0801 125.345 13.3525 126.072 13.6553V18.7109C125.496 18.3981 124.891 18.0903 124.255 17.7876C123.619 17.4748 122.918 17.1973 122.151 16.9551C121.384 16.7028 120.542 16.501 119.623 16.3496C118.705 16.1882 117.671 16.1074 116.52 16.1074C114.754 16.1074 113.286 16.2891 112.116 16.6523C110.955 17.0156 110.027 17.5 109.33 18.1055C108.634 18.7109 108.145 19.4072 107.862 20.1943C107.58 20.9714 107.438 21.7786 107.438 22.6162C107.438 23.1712 107.499 23.7212 107.62 24.2661C107.741 24.8009 107.943 25.3105 108.225 25.7949C108.508 26.2692 108.876 26.7082 109.33 27.1118C109.784 27.5155 110.35 27.8636 111.026 28.1562C111.702 28.4489 112.489 28.681 113.387 28.8525C114.295 29.014 115.34 29.0947 116.52 29.0947C117.671 29.0947 118.705 29.0241 119.623 28.8828C120.542 28.7314 121.384 28.5347 122.151 28.2925C122.918 28.0503 123.619 27.7778 124.255 27.4751C124.891 27.1623 125.496 26.8444 126.072 26.5215V31.5771ZM149.662 33C149.561 31.8698 149.289 30.8809 148.845 30.0332C148.401 29.1755 147.841 28.4388 147.165 27.8232C146.499 27.2077 145.742 26.6981 144.894 26.2944C144.057 25.8908 143.194 25.5729 142.306 25.3408C141.418 25.0986 140.53 24.9321 139.642 24.8413C138.764 24.7404 137.946 24.6899 137.19 24.6899H135.525V33H129.909V12.2021H135.525V20.2246H136.675C137.452 20.2246 138.264 20.1641 139.112 20.043C139.96 19.9219 140.797 19.7301 141.625 19.4678C142.462 19.2054 143.265 18.8674 144.031 18.4536C144.798 18.0399 145.485 17.5353 146.09 16.9399C146.696 16.3446 147.2 15.6584 147.604 14.8813C148.007 14.0942 148.26 13.2012 148.361 12.2021H154.082C153.981 13.3021 153.759 14.2961 153.416 15.1841C153.083 16.0721 152.664 16.8693 152.16 17.5757C151.665 18.272 151.11 18.8825 150.495 19.4072C149.879 19.932 149.249 20.3861 148.603 20.7695C147.957 21.1429 147.311 21.4557 146.665 21.708C146.029 21.9502 145.434 22.1369 144.879 22.2681C145.585 22.3791 146.317 22.5557 147.074 22.7979C147.841 23.0299 148.598 23.3428 149.344 23.7363C150.091 24.1198 150.803 24.5941 151.479 25.1592C152.165 25.7243 152.78 26.3853 153.325 27.1421C153.87 27.8989 154.324 28.7617 154.688 29.7305C155.051 30.6992 155.283 31.7891 155.384 33H149.662ZM157.102 33V27.5508H162.839V33H157.102ZM189.169 31.5771C188.443 31.8799 187.711 32.1523 186.975 32.3945C186.238 32.6367 185.476 32.8436 184.689 33.0151C183.902 33.1968 183.069 33.333 182.191 33.4238C181.324 33.5146 180.39 33.5601 179.391 33.5601C177.272 33.5601 175.319 33.333 173.533 32.8789C171.757 32.4248 170.223 31.7437 168.932 30.8354C167.65 29.9172 166.651 28.7769 165.935 27.4146C165.218 26.0422 164.86 24.4427 164.86 22.6162C164.86 20.7897 165.218 19.1953 165.935 17.833C166.651 16.4606 167.65 15.3203 168.932 14.4121C170.223 13.4938 171.757 12.8076 173.533 12.3535C175.319 11.8994 177.272 11.6724 179.391 11.6724C180.39 11.6724 181.324 11.7178 182.191 11.8086C183.069 11.8994 183.902 12.0356 184.689 12.2173C185.476 12.3888 186.238 12.5957 186.975 12.8379C187.711 13.0801 188.443 13.3525 189.169 13.6553V18.7109C188.594 18.3981 187.989 18.0903 187.353 17.7876C186.717 17.4748 186.016 17.1973 185.249 16.9551C184.482 16.7028 183.639 16.501 182.721 16.3496C181.803 16.1882 180.769 16.1074 179.618 16.1074C177.852 16.1074 176.384 16.2891 175.213 16.6523C174.053 17.0156 173.125 17.5 172.428 18.1055C171.732 18.7109 171.243 19.4072 170.96 20.1943C170.677 20.9714 170.536 21.7786 170.536 22.6162C170.536 23.1712 170.597 23.7212 170.718 24.2661C170.839 24.8009 171.041 25.3105 171.323 25.7949C171.606 26.2692 171.974 26.7082 172.428 27.1118C172.882 27.5155 173.447 27.8636 174.124 28.1562C174.8 28.4489 175.587 28.681 176.485 28.8525C177.393 29.014 178.438 29.0947 179.618 29.0947C180.769 29.0947 181.803 29.0241 182.721 28.8828C183.639 28.7314 184.482 28.5347 185.249 28.2925C186.016 28.0503 186.717 27.7778 187.353 27.4751C187.989 27.1623 188.594 26.8444 189.169 26.5215V31.5771ZM219.92 22.6162C219.92 24.4023 219.592 25.9816 218.936 27.354C218.28 28.7163 217.342 29.8566 216.121 30.7749C214.899 31.6932 213.416 32.3895 211.67 32.8638C209.935 33.328 207.982 33.5601 205.812 33.5601C203.643 33.5601 201.68 33.328 199.924 32.8638C198.178 32.3895 196.69 31.6932 195.459 30.7749C194.228 29.8566 193.279 28.7163 192.613 27.354C191.947 25.9816 191.614 24.4023 191.614 22.6162C191.614 20.8301 191.947 19.2559 192.613 17.8936C193.279 16.5212 194.228 15.3758 195.459 14.4575C196.69 13.5392 198.178 12.848 199.924 12.3838C201.68 11.9095 203.643 11.6724 205.812 11.6724C207.982 11.6724 209.935 11.9095 211.67 12.3838C213.416 12.848 214.899 13.5392 216.121 14.4575C217.342 15.3758 218.28 16.5212 218.936 17.8936C219.592 19.2559 219.92 20.8301 219.92 22.6162ZM214.244 22.6162C214.244 21.8392 214.117 21.0672 213.865 20.3003C213.623 19.5233 213.184 18.827 212.548 18.2114C211.923 17.5959 211.065 17.0964 209.975 16.7129C208.885 16.3294 207.498 16.1377 205.812 16.1377C204.682 16.1377 203.688 16.2285 202.83 16.4102C201.973 16.5817 201.231 16.8239 200.605 17.1367C199.98 17.4495 199.455 17.8179 199.031 18.2417C198.607 18.6554 198.269 19.1045 198.017 19.5889C197.765 20.0632 197.583 20.5627 197.472 21.0874C197.371 21.6021 197.321 22.1117 197.321 22.6162C197.321 23.1309 197.371 23.6506 197.472 24.1753C197.583 24.7 197.765 25.2046 198.017 25.689C198.269 26.1632 198.607 26.6073 199.031 27.021C199.455 27.4347 199.98 27.798 200.605 28.1108C201.231 28.4136 201.973 28.6558 202.83 28.8374C203.688 29.009 204.682 29.0947 205.812 29.0947C207.498 29.0947 208.885 28.903 209.975 28.5195C211.065 28.1361 211.923 27.6366 212.548 27.021C213.184 26.4054 213.623 25.7142 213.865 24.9473C214.117 24.1702 214.244 23.3932 214.244 22.6162ZM229.252 12.2021V14.4878C229.746 14.175 230.281 13.8521 230.856 13.519C231.442 13.186 232.072 12.8833 232.748 12.6108C233.435 12.3384 234.166 12.1164 234.943 11.9448C235.73 11.7632 236.578 11.6724 237.486 11.6724C238.374 11.6724 239.151 11.7682 239.817 11.96C240.483 12.1416 241.058 12.3838 241.543 12.6865C242.037 12.9792 242.456 13.3122 242.799 13.6855C243.142 14.0488 243.44 14.4121 243.692 14.7754C244.409 14.3112 245.115 13.8874 245.811 13.5039C246.508 13.1204 247.209 12.7925 247.915 12.52C248.622 12.2476 249.343 12.0407 250.08 11.8994C250.817 11.748 251.583 11.6724 252.381 11.6724C253.652 11.6724 254.787 11.849 255.786 12.2021C256.796 12.5553 257.648 13.0397 258.345 13.6553C259.041 14.2708 259.571 14.9974 259.934 15.835C260.307 16.6624 260.494 17.5505 260.494 18.499V33H254.878V19.3013C254.878 18.7463 254.792 18.2669 254.621 17.8633C254.449 17.4596 254.217 17.1317 253.925 16.8794C253.642 16.6271 253.304 16.4404 252.91 16.3193C252.527 16.1982 252.118 16.1377 251.684 16.1377C249.666 16.1377 247.365 17.0459 244.782 18.8623C244.812 19.0339 244.832 19.2357 244.843 19.4678C244.863 19.6999 244.873 19.932 244.873 20.1641V33H239.257V19.1802C239.257 18.6252 239.171 18.1559 239 17.7725C238.828 17.3789 238.591 17.061 238.288 16.8188C237.996 16.5767 237.653 16.4051 237.259 16.3042C236.876 16.1932 236.467 16.1377 236.033 16.1377C235.508 16.1377 234.953 16.2134 234.368 16.3647C233.793 16.5161 233.207 16.728 232.612 17.0005C232.027 17.2729 231.447 17.5959 230.871 17.9692C230.306 18.3426 229.766 18.7463 229.252 19.1802V33H223.636V12.2021H229.252Z" fill="#F35178"/>
<path fill-rule="evenodd" clip-rule="evenodd" d="M34.6737 15.8051C32.0451 9.46194 25.7936 5 18.5 5C8.83502 5 0.999999 12.835 0.999999 22.5C1 32.165 8.83502 40 18.5 40C19.1338 40 19.7597 39.9663 20.3761 39.9006C22.8084 32.3255 20.6611 28.4326 18.4634 24.4484C15.9708 19.9296 13.4134 15.2934 17.3996 5.03429C17.7635 5.01171 18.1305 5.00025 18.5001 5.00025C25.7936 5.00025 32.045 9.46207 34.6737 15.8051Z" fill="#F35178"/>
<path fill-rule="evenodd" clip-rule="evenodd" d="M38 22.5002C38 12.8353 30.165 5.00025 20.5 5.00025C20.1304 5.00025 19.7634 5.01171 19.3995 5.03429C15.4134 15.2934 17.9707 19.9296 20.4633 24.4484C22.661 28.4326 24.8084 32.3256 22.376 39.9009C31.1588 38.9649 38 31.5315 38 22.5002Z" fill="#7CB18E"/>
</svg>

<svg viewBox="0 0 267 45" fill="none" xmlns="http://www.w3.org/2000/svg"><path d="M60.302 24.508V33h-5.6v-8.492L44.62 12.202h6.296l6.6 8.37 6.57-8.37h6.296l-10.08 12.306Zm17.93-12.306v11.716c0 .777.065 1.483.197 2.12.13.625.373 1.165.726 1.619.353.444.848.792 1.484 1.044.635.242 1.463.363 2.482.363a9.81 9.81 0 0 0 2.407-.317 16.724 16.724 0 0 0 2.512-.848 18.564 18.564 0 0 0 2.362-1.211 17.455 17.455 0 0 0 2.028-1.438V12.202h5.6V33h-5.6v-2.846c-.706.404-1.458.813-2.255 1.226-.797.404-1.645.772-2.543 1.105-.898.323-1.852.586-2.861.788-1.01.211-2.074.317-3.194.317-1.403 0-2.659-.171-3.769-.514-1.11-.333-2.049-.808-2.815-1.423a6.402 6.402 0 0 1-1.771-2.255c-.404-.889-.606-1.878-.606-2.967V12.202h5.616Zm47.84 19.375a30.33 30.33 0 0 1-2.195.817 23.01 23.01 0 0 1-2.286.621 20.46 20.46 0 0 1-2.497.409c-.868.09-1.802.136-2.801.136-2.119 0-4.072-.227-5.858-.681-1.776-.454-3.31-1.135-4.601-2.044a9.732 9.732 0 0 1-2.997-3.42c-.717-1.373-1.075-2.972-1.075-4.799 0-1.826.358-3.42 1.075-4.783a9.561 9.561 0 0 1 2.997-3.42c1.291-.92 2.825-1.605 4.601-2.06 1.786-.454 3.739-.68 5.858-.68.999 0 1.933.045 2.801.136.877.09 1.71.227 2.497.408a23.01 23.01 0 0 1 2.286.62 30.82 30.82 0 0 1 2.195.818v5.056a38.26 38.26 0 0 0-1.817-.923 14.997 14.997 0 0 0-2.104-.833 16.872 16.872 0 0 0-2.528-.605c-.918-.162-1.952-.243-3.103-.243-1.766 0-3.234.182-4.404.545-1.161.364-2.089.848-2.786 1.453-.696.606-1.185 1.302-1.468 2.09a7.046 7.046 0 0 0-.424 2.421c0 .555.061 1.105.182 1.65.121.535.323 1.045.605 1.529.283.474.651.913 1.105 1.317.454.404 1.02.752 1.696 1.044.676.293 1.463.525 2.361.697.908.161 1.953.242 3.133.242 1.151 0 2.185-.07 3.103-.212a18.264 18.264 0 0 0 2.528-.59 16.358 16.358 0 0 0 2.104-.818 38.11 38.11 0 0 0 1.817-.954v5.056ZM149.662 33c-.101-1.13-.373-2.12-.817-2.967a7.817 7.817 0 0 0-1.68-2.21 9.06 9.06 0 0 0-2.271-1.529 14.27 14.27 0 0 0-2.588-.953 16.483 16.483 0 0 0-2.664-.5c-.878-.1-1.696-.151-2.452-.151h-1.665V33h-5.616V12.202h5.616v8.023h1.15c.777 0 1.589-.06 2.437-.182a15.616 15.616 0 0 0 2.513-.575c.837-.263 1.64-.6 2.406-1.014a9.028 9.028 0 0 0 2.059-1.514 8.099 8.099 0 0 0 1.514-2.059c.403-.787.656-1.68.757-2.679h5.721c-.101 1.1-.323 2.094-.666 2.982a10.353 10.353 0 0 1-1.256 2.392 10.036 10.036 0 0 1-1.665 1.831c-.616.525-1.246.98-1.892 1.363-.646.373-1.292.686-1.938.938-.636.242-1.231.429-1.786.56.706.111 1.438.288 2.195.53a12.85 12.85 0 0 1 2.27.938c.747.384 1.459.858 2.135 1.423a10.505 10.505 0 0 1 1.846 1.983c.545.757.999 1.62 1.363 2.588.363.97.595 2.06.696 3.27h-5.722Zm7.44 0v-5.45h5.737V33h-5.737Zm32.067-1.423c-.726.303-1.458.575-2.194.817a23.01 23.01 0 0 1-2.286.621c-.787.182-1.62.318-2.498.409-.867.09-1.801.136-2.8.136-2.119 0-4.072-.227-5.858-.681-1.776-.454-3.31-1.135-4.601-2.044a9.732 9.732 0 0 1-2.997-3.42c-.717-1.373-1.075-2.972-1.075-4.799 0-1.826.358-3.42 1.075-4.783a9.561 9.561 0 0 1 2.997-3.42c1.291-.92 2.825-1.605 4.601-2.06 1.786-.454 3.739-.68 5.858-.68.999 0 1.933.045 2.8.136.878.09 1.711.227 2.498.408a23.01 23.01 0 0 1 2.286.62c.736.243 1.468.515 2.194.818v5.056c-.575-.313-1.18-.62-1.816-.923a14.997 14.997 0 0 0-2.104-.833 16.902 16.902 0 0 0-2.528-.605c-.918-.162-1.952-.243-3.103-.243-1.766 0-3.234.182-4.405.545-1.16.364-2.088.848-2.785 1.453-.696.606-1.185 1.302-1.468 2.09a7.022 7.022 0 0 0-.424 2.421c0 .555.061 1.105.182 1.65.121.535.323 1.045.605 1.529.283.474.651.913 1.105 1.317.454.404 1.019.752 1.696 1.044.676.293 1.463.525 2.361.697.908.161 1.953.242 3.133.242 1.151 0 2.185-.07 3.103-.212a18.298 18.298 0 0 0 2.528-.59 16.358 16.358 0 0 0 2.104-.818c.636-.313 1.241-.63 1.816-.954v5.056Zm30.751-8.96c0 1.785-.328 3.365-.984 4.737a9.241 9.241 0 0 1-2.815 3.42c-1.222.92-2.705 1.615-4.451 2.09-1.735.464-3.688.696-5.858.696-2.169 0-4.132-.232-5.888-.696-1.746-.474-3.234-1.17-4.465-2.09a9.324 9.324 0 0 1-2.846-3.42c-.666-1.372-.999-2.952-.999-4.738 0-1.786.333-3.36.999-4.722a9.291 9.291 0 0 1 2.846-3.436c1.231-.919 2.719-1.61 4.465-2.074 1.756-.475 3.719-.712 5.888-.712 2.17 0 4.123.237 5.858.712 1.746.464 3.229 1.155 4.451 2.073a9.21 9.21 0 0 1 2.815 3.437c.656 1.362.984 2.936.984 4.722Zm-5.676 0a7.38 7.38 0 0 0-.379-2.317c-.242-.777-.681-1.473-1.317-2.089-.625-.615-1.483-1.115-2.573-1.498-1.09-.384-2.477-.575-4.163-.575-1.13 0-2.124.09-2.982.272-.857.172-1.599.414-2.225.727a6.004 6.004 0 0 0-1.574 1.105 5.298 5.298 0 0 0-1.014 1.347 5.688 5.688 0 0 0-.545 1.498 7.924 7.924 0 0 0 0 3.088c.111.525.293 1.03.545 1.514.252.474.59.918 1.014 1.332.424.414.949.777 1.574 1.09.626.303 1.368.545 2.225.726.858.172 1.852.258 2.982.258 1.686 0 3.073-.192 4.163-.575 1.09-.384 1.948-.883 2.573-1.499.636-.616 1.075-1.307 1.317-2.074a7.52 7.52 0 0 0 .379-2.33Zm15.008-10.415v2.286a47.728 47.728 0 0 1 1.604-.969 15.716 15.716 0 0 1 1.892-.908 14.325 14.325 0 0 1 2.195-.666 11.297 11.297 0 0 1 2.543-.273c.888 0 1.665.096 2.331.288.666.182 1.241.424 1.726.726a5.49 5.49 0 0 1 1.256 1c.343.363.641.726.893 1.09a34.86 34.86 0 0 1 2.119-1.272 17.248 17.248 0 0 1 2.104-.984c.707-.272 1.428-.48 2.165-.62a11.402 11.402 0 0 1 2.301-.228c1.271 0 2.406.177 3.405.53 1.01.353 1.862.838 2.559 1.453a6.14 6.14 0 0 1 1.589 2.18c.373.827.56 1.715.56 2.664V33h-5.616V19.301c0-.555-.086-1.034-.257-1.438a2.643 2.643 0 0 0-1.711-1.544 4.046 4.046 0 0 0-1.226-.181c-2.018 0-4.319.908-6.902 2.724.03.172.05.374.061.606.02.232.03.464.03.696V33h-5.616V19.18c0-.555-.086-1.024-.257-1.407a2.45 2.45 0 0 0-.712-.954 2.598 2.598 0 0 0-1.029-.515 4.387 4.387 0 0 0-1.226-.166c-.525 0-1.08.075-1.665.227a10.79 10.79 0 0 0-1.756.636 14.29 14.29 0 0 0-1.741.968c-.565.374-1.105.777-1.619 1.211V33h-5.616V12.202h5.616Z" fill="#F35178"/><path fill-rule="evenodd" clip-rule="evenodd" d="M34.674 15.805C32.045 9.462 25.794 5 18.5 5 8.835 5 1 12.835 1 22.5S8.835 40 18.5 40c.634 0 1.26-.034 1.876-.1 2.432-7.575.285-11.467-1.913-15.452-2.492-4.518-5.05-9.155-1.063-19.414.364-.022.73-.034 1.1-.034 7.294 0 13.545 4.462 16.174 10.805Z" fill="#F35178"/><path fill-rule="evenodd" clip-rule="evenodd" d="M38 22.5C38 12.835 30.165 5 20.5 5c-.37 0-.737.012-1.1.034-3.987 10.26-1.43 14.896 1.063 19.414 2.198 3.985 4.345 7.878 1.913 15.453C31.159 38.965 38 31.53 38 22.5Z" fill="#7CB18E"/></svg>
